images_sukapura_svg/cmd/32/insertpagecountfield.svg

<svg viewBox="0 0 32 32" xmlns="http://www.w3.org/2000/svg" xmlns:xlink="http://www.w3.org/1999/xlink"><linearGradient id="a" gradientTransform="translate(75 -7)" gradientUnits="userSpaceOnUse" x1="14" x2="13.79661" y1="22" y2="2.135593"><stop offset="0" stop-color="#0040dd"/><stop offset="1" stop-color="#0a84ff"/></linearGradient><linearGradient id="b" gradientUnits="userSpaceOnUse" x1="21.780487" x2="21.988281" xlink:href="#a" y1="29.94449" y2="18"/><linearGradient id="c" gradientUnits="userSpaceOnUse" x1="13.273338" x2="13.911691" xlink:href="#a" y1="26.848612" y2="15.103449"/><radialGradient id="d" cx="22" cy="9.076923" gradientTransform="matrix(1.3 .00000001 -.00000002 1.5 -6.6 -6.615385)" gradientUnits="userSpaceOnUse" r="10"><stop offset="0" stop-color="#d7d7d7"/><stop offset=".29999998" stop-color="#f7f7f7"/><stop offset="1" stop-color="#fff"/></radialGradient><linearGradient id="e" gradientUnits="userSpaceOnUse" x1="20" x2="23" y1="9" y2="6"><stop offset="0" stop-color="#fff"/><stop offset=".77967989" stop-color="#f1f1f1"/><stop offset="1" stop-color="#d5d5d5"/></linearGradient><path d="m6 3v26h19.99762l.00238-19-7-7z" fill="url(#d)"/><path d="m5.9976202 2c-.554 0-1 .446-1 1v26c0 .554.446 1 1 1h19.9999998c.554 0 .892483-.456533 1-1v-10.109375-10.5052752l-6.508082-6.3853498zm0 1h12.9999998v6c0 .6726441.491378 1 1 1h6v19h-19.9999998z" fill="#98989d"/><path d="m20 9h6l-6-6z" fill="url(#e)" fill-rule="evenodd"/><path d="m10.988281 14c-1.0843865 0-1.9882812.903895-1.988281 1.988281v.011719h-.0117188c-1.0843872 0-1.9882812.903896-1.9882812 1.988281v.023438c0 1.084385.9038916 1.988281 1.9882812 1.988281h.0117188v2h-.0351562c-1.0717813 0-1.9648438.893061-1.9648438 1.964844v.070312c0 1.071783.893065 1.964844 1.9648438 1.964844h.0351562v.011719c0 1.084387.9038966 1.988281 1.988281 1.988281h.023438c1.084385 0 1.988281-.903892 1.988281-1.988281v-.011719h2v.011719c0 1.084386.903896 1.988281 1.988281 1.988281h.023438c.458417 0 .844342-.229627 1.183593-.498047.233405.824216.878371 1.498047 1.769532 1.498047h.035156v.011719c0 .359616.106862.69475.279297.988281h3.441406c.172435-.293532.279297-.628664.279297-.988281v-.011719h1.998047.001953v.011719c0 .337802.096438.652692.25.933593.400242-.118991.658602-.493196.748047-.945312v-10.109375-1.609375c-.590337.347839-.998047.983192-.998047 1.707031v.011719h-.001953-1.998047v-.011719c0-1.084386-.903897-1.988281-1.988281-1.988281h-.023438c-.461899 0-.852863.227905-1.193359.5-.242078-.825204-.887876-1.5-1.783203-1.5h-.011719v-.011719c0-1.084387-.903896-1.988281-1.988281-1.988281h-.023438c-1.084385 0-1.988281.903892-1.988281 1.988281v.011719h-2v-.011719c0-1.084386-.903896-1.988281-1.988281-1.988281zm2.011719 6h2v2h-2zm11 3h1.998047.001953v2h-.001953-1.998047z" fill="#fff" fill-opacity=".784314"/><path d="m21.988281 18c-.54736 0-.988281.440921-.988281.988281v1.011719h-1.011719c-.54736 0-.988281.440921-.988281.988281v.02344c0 .547358.440921.988279.988281.988279h1.011719v4h-1.035156c-.534081 0-.964844.430763-.964844.964844v.07031c0 .534083.430763.964846.964844.964846h1.035156v1.011719c0 .54736.440921.988281.988281.988281h.02344c.547358 0 .988279-.440921.988279-.988281v-1.011719h4v1.011719c0 .54736.440921.988281.988281.988281h.02344c.547358 0 .988279-.440921.988279-.988281v-1.011719h1.035156c.534081 0 .964844-.430763.964844-.964844v-.07031c0-.534083-.430763-.964846-.964844-.964846h-1.035156v-4h1.011719c.54736 0 .988281-.440921.988281-.988281v-.02344c0-.547358-.440921-.988279-.988281-.988279h-1.011719v-1.011719c0-.54736-.440921-.988281-.988281-.988281h-.02344c-.547358 0-.988279.440921-.988279.988281v1.011719h-4v-1.011719c0-.54736-.440921-.988281-.988281-.988281zm1.011719 4h4v4h-4z" fill="url(#b)"/><path d="m10.988281 15c-.54736 0-.988281.440921-.988281.988281v1.011719h-1.011719c-.54736 0-.988281.440921-.988281.988281v.02344c0 .547358.440921.988279.988281.988279h1.011719v4h-1.035156c-.534081 0-.964844.430763-.964844.964844v.07031c0 .534083.430763.964846.964844.964846h1.035156v1.011719c0 .54736.440921.988281.988281.988281h.02344c.547358 0 .988279-.440921.988279-.988281v-1.011719h4v1.011719c0 .54736.440921.988281.988281.988281h.02344c.547358 0 .988279-.440921.988279-.988281v-1.011719h1.035156c.534081 0 .964844-.430763.964844-.964844v-.07031c0-.534083-.430763-.964846-.964844-.964846h-1.035156v-4h1.011719c.54736 0 .988281-.440921.988281-.988281v-.02344c0-.547358-.440921-.988279-.988281-.988279h-1.011719v-1.011719c0-.54736-.440921-.988281-.988281-.988281h-.02344c-.547358 0-.988279.440921-.988279.988281v1.011719h-4v-1.011719c0-.54736-.440921-.988281-.988281-.988281h-.02344zm1.011719 4h4v4h-4z" fill="url(#c)"/></svg>

<?xml version="1.0" encoding="UTF-8" standalone="no"?>
<svg
   xmlns:dc="http://purl.org/dc/elements/1.1/"
   xmlns:cc="http://creativecommons.org/ns#"
   xmlns:rdf="http://www.w3.org/1999/02/22-rdf-syntax-ns#"
   xmlns:svg="http://www.w3.org/2000/svg"
   xmlns="http://www.w3.org/2000/svg"
   xmlns:xlink="http://www.w3.org/1999/xlink"
   xmlns:sodipodi="http://sodipodi.sourceforge.net/DTD/sodipodi-0.dtd"
   xmlns:inkscape="http://www.inkscape.org/namespaces/inkscape"
   viewBox="0 0 32 32"
   version="1.1"
   id="svg22"
   sodipodi:docname="insertpagecountfield.svg"
   inkscape:version="0.92.3 (unknown)">
  <metadata
     id="metadata28">
    <rdf:RDF>
      <cc:Work
         rdf:about="">
        <dc:format>image/svg+xml</dc:format>
        <dc:type
           rdf:resource="http://purl.org/dc/dcmitype/StillImage" />
        <dc:title></dc:title>
      </cc:Work>
    </rdf:RDF>
  </metadata>
  <defs
     id="defs26">
    <linearGradient
       gradientTransform="translate(75,-7)"
       id="a-367"
       gradientUnits="userSpaceOnUse"
       x1="14"
       x2="13.79661"
       y1="22"
       y2="2.1355929">
      <stop
         offset="0"
         stop-color="#0040dd"
         id="stop2206" />
      <stop
         offset="1"
         stop-color="#0a84ff"
         id="stop2208" />
    </linearGradient>
    <linearGradient
       inkscape:collect="always"
       xlink:href="#a-367"
       id="linearGradient2675"
       x1="21.780487"
       y1="29.94449"
       x2="21.988281"
       y2="18"
       gradientUnits="userSpaceOnUse" />
    <linearGradient
       inkscape:collect="always"
       xlink:href="#a-367"
       id="linearGradient1587"
       x1="13.273338"
       y1="26.848612"
       x2="13.911691"
       y2="15.103449"
       gradientUnits="userSpaceOnUse" />
  </defs>
  <sodipodi:namedview
     pagecolor="#ffffff"
     bordercolor="#666666"
     borderopacity="1"
     objecttolerance="10"
     gridtolerance="10"
     guidetolerance="10"
     inkscape:pageopacity="0"
     inkscape:pageshadow="2"
     inkscape:window-width="1366"
     inkscape:window-height="706"
     id="namedview24"
     showgrid="false"
     inkscape:zoom="7.375"
     inkscape:cx="22.489877"
     inkscape:cy="0.80929872"
     inkscape:window-x="0"
     inkscape:window-y="0"
     inkscape:window-maximized="1"
     inkscape:current-layer="svg22" />
  <radialGradient
     id="a"
     cx="22"
     cy="9.076923"
     gradientTransform="matrix(1.3 .00000001 -.00000002 1.5 -6.6 -6.615385)"
     gradientUnits="userSpaceOnUse"
     r="10">
    <stop
       offset="0"
       stop-color="#d7d7d7"
       id="stop2" />
    <stop
       offset=".29999998"
       stop-color="#f7f7f7"
       id="stop4" />
    <stop
       offset="1"
       stop-color="#fff"
       id="stop6" />
  </radialGradient>
  <linearGradient
     id="b"
     gradientUnits="userSpaceOnUse"
     x1="20"
     x2="23"
     y1="9"
     y2="6">
    <stop
       offset="0"
       stop-color="#fff"
       id="stop9" />
    <stop
       offset=".77967989"
       stop-color="#f1f1f1"
       id="stop11" />
    <stop
       offset="1"
       stop-color="#d5d5d5"
       id="stop13" />
  </linearGradient>
  <g
     id="g838">
    <path
       id="path16"
       d="m6 3v26h19.99762l.00238-19-7-7z"
       fill="url(#a)" />
    <path
       id="path18"
       d="m5.9976202 2c-.554 0-1 .446-1 1v26c0 .554.446 1 1 1h19.9999998c.554 0 .892483-.456533 1-1v-10.109375-10.5052752l-6.508082-6.3853498zm0 1h12.9999998v6c0 .6726441.491378 1 1 1h6v19h-19.9999998z"
       fill="#98989d" />
    <path
       id="path20"
       d="m20 9h6l-6-6z"
       fill-rule="evenodd"
       fill="url(#b)" />
  </g>
  <path
     style="fill:#ffffff;fill-opacity:0.78431374"
     d="M 10.988281 14 C 9.9038945 14 8.9999998 14.903895 9 15.988281 L 9 16 L 8.9882812 16 C 7.903894 16 7 16.903896 7 17.988281 L 7 18.011719 C 7 19.096104 7.9038916 20 8.9882812 20 L 9 20 L 9 22 L 8.9648438 22 C 7.8930625 22 7 22.893061 7 23.964844 L 7 24.035156 C 7 25.106939 7.893065 26 8.9648438 26 L 9 26 L 9 26.011719 C 9 27.096106 9.9038966 28 10.988281 28 L 11.011719 28 C 12.096104 28 13 27.096108 13 26.011719 L 13 26 L 15 26 L 15 26.011719 C 15 27.096105 15.903896 28 16.988281 28 L 17.011719 28 C 17.470136 28 17.856061 27.770373 18.195312 27.501953 C 18.428717 28.326169 19.073683 29 19.964844 29 L 20 29 L 20 29.011719 C 20 29.371335 20.106862 29.706469 20.279297 30 L 23.720703 30 C 23.893138 29.706468 24 29.371336 24 29.011719 L 24 29 L 25.998047 29 L 26 29 L 26 29.011719 C 26 29.349521 26.096438 29.664411 26.25 29.945312 C 26.650242 29.826321 26.908602 29.452116 26.998047 29 L 26.998047 18.890625 L 26.998047 17.28125 C 26.40771 17.629089 26 18.264442 26 18.988281 L 26 19 L 25.998047 19 L 24 19 L 24 18.988281 C 24 17.903895 23.096103 17 22.011719 17 L 21.988281 17 C 21.526382 17 21.135418 17.227905 20.794922 17.5 C 20.552844 16.674796 19.907046 16 19.011719 16 L 19 16 L 19 15.988281 C 19 14.903894 18.096104 14 17.011719 14 L 16.988281 14 C 15.903896 14 15 14.903892 15 15.988281 L 15 16 L 13 16 L 13 15.988281 C 13 14.903895 12.096104 14 11.011719 14 L 10.988281 14 z M 13 20 L 15 20 L 15 22 L 13 22 L 13 20 z M 24 23 L 25.998047 23 L 26 23 L 26 25 L 25.998047 25 L 24 25 L 24 23 z "
     id="path1564" />
  <path
     inkscape:connector-curvature="0"
     style="fill:url(#linearGradient2675);fill-opacity:1"
     d="M 21.988281,18 C 21.440921,18 21,18.440921 21,18.988281 V 20 H 19.988281 C 19.440921,20 19,20.440921 19,20.988281 v 0.02344 C 19,21.559079 19.440921,22 19.988281,22 H 21 v 4 H 19.964844 C 19.430763,26 19,26.430763 19,26.964844 v 0.07031 C 19,27.569237 19.430763,28 19.964844,28 H 21 v 1.011719 C 21,29.559079 21.440921,30 21.988281,30 h 0.02344 C 22.559079,30 23,29.559079 23,29.011719 V 28 h 4 v 1.011719 C 27,29.559079 27.440921,30 27.988281,30 h 0.02344 C 28.559079,30 29,29.559079 29,29.011719 V 28 h 1.035156 C 30.569237,28 31,27.569237 31,27.035156 v -0.07031 C 31,26.430763 30.569237,26 30.035156,26 H 29 v -4 h 1.011719 C 30.559079,22 31,21.559079 31,21.011719 v -0.02344 C 31,20.440921 30.559079,20 30.011719,20 H 29 V 18.988281 C 29,18.440921 28.559079,18 28.011719,18 h -0.02344 C 27.440921,18 27,18.440921 27,18.988281 V 20 H 23 V 18.988281 C 23,18.440921 22.559079,18 22.011719,18 Z M 23,22 h 4 v 4 h -4 z"
     id="path8" />
  <path
     inkscape:connector-curvature="0"
     style="fill:url(#linearGradient1587);fill-opacity:1"
     d="M 10.988281,15 C 10.440921,15 10,15.440921 10,15.988281 V 17 H 8.988281 C 8.440921,17 8,17.440921 8,17.988281 v 0.02344 C 8,18.559079 8.440921,19 8.988281,19 H 10 v 4 H 8.964844 C 8.430763,23 8,23.430763 8,23.964844 v 0.07031 C 8,24.569237 8.430763,25 8.964844,25 H 10 v 1.011719 C 10,26.559079 10.440921,27 10.988281,27 h 0.02344 C 11.559079,27 12,26.559079 12,26.011719 V 25 h 4 v 1.011719 C 16,26.559079 16.440921,27 16.988281,27 h 0.02344 C 17.559079,27 18,26.559079 18,26.011719 V 25 h 1.035156 C 19.569237,25 20,24.569237 20,24.035156 v -0.07031 C 20,23.430763 19.569237,23 19.035156,23 H 18 v -4 h 1.011719 C 19.559079,19 20,18.559079 20,18.011719 v -0.02344 C 20,17.440921 19.559079,17 19.011719,17 H 18 V 15.988281 C 18,15.440921 17.559079,15 17.011719,15 h -0.02344 C 16.440921,15 16,15.440921 16,15.988281 V 17 H 12 V 15.988281 C 12,15.440921 11.559079,15 11.011719,15 h -0.02344 z M 12,19 h 4 v 4 h -4 z"
     id="path10" />
</svg>
